X:1
T:Sing ye unto the Lord - Mundy
T:#
%%score [ 1 2 3 4 ]
L:1/8
Q:1/4=108
M:2/2
K:G
V:1 treble nm="Soprano" snm="S"
V:2 treble nm="Alto" snm="A"
V:3 treble-8 nm="Tenor" snm="T"
V:4 bass nm="Bass" snm="B"
V:1
"^Psalm 149 vv 1-2" z8 | z8 |"^Sing ye unto the Lord" z8 | z8 | D4 E2"^John Mundy\n(?-1630)" F2 | %5
w: ||||Sing ye un-|
[M:2/2] G2 A2 B2 c2 | d4 z2 D2 | E2 F2 G2 A2 | B8 | A4 A4- | (A2 G2) G4 | F4 z4 | D2 G4 E2 | %13
w: to the Lord our|God, sing|ye un- to the|Lord,|the Lord|* * our|God,|A new re-|
 =F2 D2 E4- | E2 F2 G4- | G2 F2 G4 | G2 d4 B2 | c2 A2 B4 | G2 G4 G2 | =F4 E2 E2- | E2 (D2 B,4) | %21
w: joic- ing song,|* re- joic\-|* ing song,|a new re-|joic- ing song:|And let the|praise of him|* be *|
 ^C4 =c2 B2- | B2 A2 A2 B2 | A4 G2 F2 | E2 D4 ^C2 | D4 z2 =F2 | E3 E E2 =F2 | E2 G2 ^F4 | %28
w: heard, his ho\-|* ly saints a-|mong, his ho-|ly saints a-|mong. Let|Is- ra- el re-|joice in him,|
 B2 A4 d2 | c4 B2 A2 | G4 F4 | z4 z2 d2 | c2 B2 A2 G2 | c2 B2 A2 A2 | E2 D2 E2 G2 | F2 (E2 G4) | %36
w: that made, that|made him of|no- thing:|And|let the seed of|Si- on eke, and|let the seed of|Si- on *|
 F4 A2 F2 | D4 d2 B2 | A2 G4 F2 | G2 d2 B2 G2 | c2 B2 A2 G2 | F3 G[Q:1/4=106] A2[Q:1/4=104] G2 | %42
w: eke be joy-|ful, be joy-|ful of their|king, be joy- ful|in their king, be|joy- ful in their|
[Q:1/4=102] F2[Q:1/4=99] G4[Q:1/4=96] F2 |[Q:1/4=96] G16 |] %44
w: king, in their|king.|
V:2
 z8 | z8 | z8 | z8 | z8 |[M:2/2] z8 | D4 E2 F2 | G2 A2 B2 c2 | d4 d4 | c8- | c4 B4 | A4 z4 | %12
w: ||||||Sing ye un-|to the Lord our|God, the|Lord|* our|God,|
 z4 z4 | z4 z2 G2- | G2 d4 B2 | c2 A2 B4- | B2 F4 G2- | G2 F2 G4 | B2 c4 B2 | A4 A2 G2- | %20
w: |A|* new re-|joic- ing song,|* re- joic\-|* ing song:|And let the|praise of him|
 G2 (=F2 E4) | E6 E2 | D2 E2 D2 D2 | ^C3 D E2 D2 | ^C2 (D2 E4) | F4 z2 D2 | G3 G G2 A2 | G2 B2 A4 | %28
w: * be *|heard, his|ho- ly saints a-|mong, his ho- ly|saints a\- *|mong. Let|Is- ra- el re-|joice in him,|
 d2 c4 B2 | A3 G F2 D2- | (D2 ^C2) D2 A2 | G2 F2 E2 D2 | E4 E2 E2- | EF G4 F2 | G2 d2 c2 B2 | %35
w: that made, that|made him of no\-|* * thing: And|let the seed of|Si- on eke,|* of Si- on|eke, and let the|
 A2 G2 c2 B2 | A2 A2 F2 D2 | z2 d2 B2 G2 | c2 B2 A4 | B4 d2 B2 | G4 E4 | D4 D4 | d8 | B16 |] %44
w: seed of Si- on|eke be joy- ful,|be joy- ful|in their king,|be joy- ful|in their|king, in|their|king.|
V:3
 D4 E2 F2 | G2 A2 B2 c2 | d4 c4 | c2 B2 G2 A2 | B6 d2 |[M:2/2][K:treble-8] e2 f2 g2 e2 | f8 | %7
w: Sing ye un-|to the Lord our|God, sing|ye un- to the|Lord, un-|to the Lord our|God,|
 e4 d2 c2 | B2 G2 A2 B2 | c4 e4 | e4 d4 | d6 d2 | B2 G2 c4- | c2 B2 c4 | c2 B4 G2 | A4 G4 | d8 | %17
w: sing ye un-|to the Lord our|God, sing|ye un-|to the|Lord our God,|* A new|re- joic- ing|song, re-|joic-|
 c4 d4 | d2 e4 d2 | d4 c2 c2- | cB A4 ^G2 | A6 G2 | F2 (E2 F2 G2) | E6 A2 | A4 A4 | A4 z2 A2 | %26
w: ing song:|And let the|praise, and let|* the praise of|him be|heard, his * *|ho- ly|saints a-|mong. Let|
 c3 c c2 c2 | c2 d2 d4 | g2 e4 d2 | e4 d2 d2 | G4 A4 | z2 d2 c2 B2 | A2 G2 c3 B | A2 B2 c2 d2 | %34
w: Is- ra- el re-|joice in him,|that made, that|made him of|no- thing:|And let the|seed of Si- on|eke, and let the|
 G4 c2 d2- | d2 B2 e2 d2 | d4 z2 d2 | B4 G4 | A2 B2 c2 d2 | G6 G2 | G4 c4 | A2 d2 c2 B2 | %42
w: seed, the seed|* of Si- on|eke, be|joy- ful|in their king, be|joy- ful|in their|king, be joy- ful|
 A2 (G2 A4) | G16 |] %44
w: in their *|king.|
V:4
 z8 | z8 | G,,4 A,,2 B,,2 | C,2 D,2 E,2 F,2 | G,6 F,2 |[M:2/2] E,8 | D,8 | C,4 (B,,2 A,,2) | %8
w: ||Sing ye un-|to the Lord our|God, un-|to|the|Lord our *|
 G,,4 z2 G,,2 | A,,2 B,,2 C,2 D,2 | E,2 (F,2 G,4) | D,4 D,2 G,2- | G,2 E,2 E,2 (C,2 | D,4) C,4 | %14
w: God, sing|ye un- to the|Lord our *|God A new|* re- joic- ing|* song,|
 z4 z4 | z4 G,,2 G,2- | G,2 B,2 B,2 (G,2 | A,4) G,4 | G,,2 C,4 G,,2 | D,4 A,,2 C,2- | %20
w: |a new|* re- joic- ing|* song:|And let the|praise of him|
 C,2 (D,2 E,4) | A,,6 E,2 | B,,2 ^C,2 D,2 G,,2 | A,,3 (B,, C,2 D,2 | A,,8) | D,4 z2 D,2 | %26
w: * be *|heard, his|ho- ly saints a-|mong, a\- * *||mong. Let|
 C,3 C, C,2 =F,2 | C,2 G,2 D,4 | G,,2 A,,4 B,,2 | C,4 D,2 =F,2 | E,4 D,4 | z8 | z8 | z4 z2 D,2 | %34
w: Is- ra- el re-|joice in him|that made, that|made him of|no- thing,|||And|
 C,2 B,,2 A,,2 G,,2 | (D,2 E,2 C,2) G,,2 | D,8 | z8 | z4 z2 D,2 | B,,2 G,,2 z2 G,2 | E,4 C,4 | %41
w: let the seed of|Si\- * * on|eke,||be|joy- ful, be|joy- ful|
 D,8- | D,4 D,4 | G,,16 |] %44
w: in|* their|king.|

